packages/icons/svgs/duotone/Source=shield.svg

<svg width="24" height="24" viewBox="0 0 24 24" fill="none" xmlns="http://www.w3.org/2000/svg">
<g clip-path="url(#clip0_2799_1804)">
<path opacity="0.5" d="M19.9872 8.10284V5.59406C19.9872 5.35768 19.8534 5.14567 19.6488 5.04186L19.5564 5.00449L12.1163 2.62338C11.9937 2.58467 11.8607 2.58477 11.7353 2.62442L11.7343 2.62338L4.29721 5.00449L4.29617 5.00345C4.03888 5.08685 3.86648 5.32575 3.86645 5.59406V14.8341C3.86645 16.5465 5.20321 18.0216 7.04368 19.2122C8.61512 20.2288 10.365 20.9124 11.3585 21.255L11.7353 21.3806L11.7364 21.3816C11.8637 21.423 11.9889 21.4229 12.1163 21.3816C13.3372 20.9864 16.6668 19.7639 18.5994 17.7778L18.6596 17.7217C18.9692 17.462 19.4308 17.4744 19.7267 17.7622C20.0422 18.0692 20.0492 18.5739 19.7422 18.8894L19.5294 19.1012C17.2815 21.2667 13.7922 22.5138 12.6082 22.897L12.6093 22.8981C12.1615 23.0436 11.6911 23.0437 11.2433 22.8981C10.3262 22.602 8.14539 21.8239 6.17802 20.5512C4.25389 19.3065 2.27213 17.4157 2.27213 14.8341V5.59406C2.27216 4.63003 2.89519 3.77996 3.8104 3.48594L11.2516 1.10483L11.2537 1.10379C11.6919 0.96507 12.1627 0.96539 12.601 1.10483L20.0422 3.48594C20.9595 3.77891 21.5815 4.63166 21.5815 5.59406V8.10284C21.5813 8.54284 21.2243 8.89981 20.7843 8.9C20.3442 8.9 19.9874 8.54296 19.9872 8.10284Z" fill="black" style="fill:black;fill-opacity:1;"/>
<path d="M20.3408 14.4802V13.1516H17.5943C17.2308 14.7733 15.7842 15.9851 14.0528 15.9852C12.0472 15.9852 10.4211 14.3599 10.4209 12.3544C10.4209 10.3488 12.0471 8.72253 14.0528 8.72253C15.7845 8.7227 17.2321 9.9351 17.5954 11.5572H23.2637L23.3457 11.5614C23.7476 11.6023 24.0609 11.9417 24.0609 12.3544C24.0607 12.7669 23.7475 13.1065 23.3457 13.1474L23.2637 13.1516H21.9351V14.4802C21.9349 14.9203 21.5781 15.2773 21.1379 15.2773C20.698 15.2771 20.341 14.9201 20.3408 14.4802ZM12.0152 12.3544C12.0154 13.4794 12.9278 14.3909 14.0528 14.3909C15.1776 14.3907 16.0891 13.4793 16.0893 12.3544C16.0893 11.2294 15.1777 10.317 14.0528 10.3169C12.9276 10.3169 12.0152 11.2293 12.0152 12.3544Z" fill="black" style="fill:black;fill-opacity:1;"/>
</g>
<defs>
<clipPath id="clip0_2799_1804">
<rect width="24" height="24" fill="white" style="fill:white;fill-opacity:1;"/>
</clipPath>
</defs>
</svg>

<svg xmlns="http://www.w3.org/2000/svg" width="24" height="24" viewBox="0 0 24 24"><g clip-path="url(#a)"><path d="M19.987 8.103V5.594a.62.62 0 0 0-.338-.552l-.093-.038-7.44-2.38a.63.63 0 0 0-.38 0h-.002l-7.437 2.38a.62.62 0 0 0-.43.59v9.24c0 1.713 1.336 3.188 3.177 4.378 1.571 1.017 3.321 1.7 4.315 2.043l.376.126h.001a.6.6 0 0 0 .38 0c1.221-.395 4.55-1.617 6.483-3.603l.06-.056a.797.797 0 0 1 1.083 1.167l-.213.212c-2.247 2.166-5.737 3.413-6.92 3.796v.001a2.2 2.2 0 0 1-1.366 0c-.917-.296-3.098-1.074-5.065-2.347-1.924-1.244-3.906-3.135-3.906-5.717v-9.24c0-.964.623-1.814 1.538-2.108l7.442-2.381.002-.001a2.23 2.23 0 0 1 1.347 0l7.441 2.382a2.21 2.21 0 0 1 1.54 2.108v2.509a.798.798 0 0 1-1.595 0" opacity=".55"/><path d="M20.34 14.48v-1.328h-2.746a3.63 3.63 0 1 1 .001-1.595h5.669l.082.004a.797.797 0 0 1 0 1.586l-.082.005h-1.329v1.328a.797.797 0 0 1-1.594 0m-8.325-2.126a2.037 2.037 0 1 0 4.075-.001 2.037 2.037 0 0 0-4.075.001"/></g><defs><clipPath id="a"><path fill="#fff" d="M0 0h24v24H0z"/></clipPath></defs></svg>
